X:370
T:B370-  Phil Porter's Dream
Q:1/4=120
L:1/4
M:6/4
K:D
A|A3/2B/AA3/2B/A|(A3A2)F|G3/2A/FE2D|(D3D2)e|\
e3/2f/ee3/2f/e|(e3e2)c|d3/2e/cB2A|(A3A2)||e|\
e3/2f/ee3/2f/e|f3g3|f3/2e/cB2A|(B3B2)A|\
A3/2B/AA3/2B/A|A2FA2F|G3/2A/FE2D|(D3D2)|]

